X:1
T:Anonymus 16. Jh.
T:Ic zeg adiu
%%score [ 1 2 3 4 ]
L:1/8
Q:1/4=240
M:4/4
K:C
V:1 treble nm="Cantus"
V:2 treble nm="Altus"
V:3 treble nm="Tenor"
V:4 treble nm="Bassus"
V:1
"^:""^Q" x8 ||[K:F] z16 | z16 | F8 G4 G4 | A8 z8 x2 | z4 B4 B4 B4 | A4 G2 F2 E2 D2 G6 x2 | %7
w: |||Ic seg a-|diu,|wy twe~ ~wy|m- ten * * * schei-|
w: |||||||
 F2 F8 E4 F16 | z16 | z16 | F8 G4 G4 | A8 z8 x2 | z4 B4 B4 B4 | A4 G2 F2 E2 D2 G6 | F2 F8 E4 F16 | %15
w: * * * den,|||tot op ein|niew|end al om|vruecht ver * * * mei-|* * * den,|
w: ||||||||
 z4 F4 c6 c2 | B4 A4 F4 G4 | A16 | z16 | z4 A4 A4 A4 | B6 A2 G4 F4 | E16 | z16 | z16 | %24
w: ic laet by|hu de her- te|myn||al war ghi|syt, dar sal ic|syn|||
w: |||||||||
 z4 C4 D4 E4 | F16 | z16 | z4 B4 B4 B4 x2 | A4 G2 F2 E2 D2 G6 | F2 F8 E4 F16 | z16 x4 | %31
w: tsy~ druck oft|pyn,||al- tyt sult|ghi die * * * lief-|* * ste syn.||
w: |||||||
 z4 B4 B4 B4 | A4 G2 F2 E2 D2 G6 | F2 F8 E4"^-" x16 |] x20 | x26 | x24 | x16 |] %38
w: |||||||
w: al- tyt sult|ghi die * * * lief-|* * ste|||||
V:2
"^:""^Q" x8 ||[K:F] C8 D4 D4 | E8 z4 C4 | D12 E4 | F8 z8 x2 | z16 | z4 C4 E8 x4 | D8 C16 x6 | %8
w: |Ic seg a-|diu, ik|seg a-|diu,||wy m-|ten schei-|
w: ||||||||
w: ||||||||
 C8 x8 | C8 D4 D4 | E8 z4 C4 | D12 E4 x2 | F8 z8 | z16 x2 | z4 C4 E8 x14 | D8 C8 | C8 z4 F4 | %17
w: den||* tot|op ein|niew||om vrucht|ver- mei-|den, ik|
w: |||||||||
w: |tot op ein|niew, *|||||||
 F6 E2 x8 | D4 C4 D4 B,4 | A,16 | z16 | z4 C4 C4 C4 | D6 F2 E4 D4 | C16 | z16 | z16 | %26
w: laet by|hu dat her- te|myn||al war ghy|syt, dar sal ic|syn!|||
w: |||||||||
w: |||||||||
 z4 A,4 B,4 C4 | F,4 D4 D4 D4 x2 | C6 D2 E4 D6 | E2 F4 B,8 z4 x12 | C4 E8 D8 | C6 B,2 A,4 D4 | %32
w: tsy druck oft|pyn, al- tyt sult|ghy * die lief-|* ste syn,|||
w: ||||tsy druck oft|pyn, * * al-|
w: ||||||
 D4 D4 x10 | C6 D2 E4 D6 x12 |] E2 F4 B,8 z4 x2 | C4 E8 D8 x6 | C6 B,2"^-" x16 | x16 |] %38
w: ||||||
w: tyt sult|ghy * die lief-|* ste syn,|sult ghy die|lief- ste||
w: ||||||
V:3
"^:""^Q" x8 ||[K:F][K:treble-8] z8 F8 | G4 G4 A8 | z4 B4 B4 B4 | A4 G2 F2 E2 D2 G6 | F2 F8 E4 F2 | %6
w: |Ic|seg a- diu,|wij~ ~twee~ ~wij|m- * * * * *||
w: ||||* ten * * * schei-||
 G2 A2 B2 c4 G4 B6 | A2 G8 F16 x4 | z8 F8 | G4 G4 A8 | z4 B4 B4 B4 | A4 G2 F2 E2 D2 G6 | %12
w: ||||||
w: |* * den.|tot|op ein niew,|end al om|vrucht ver * * * mei-|
 F2 F8 E4 x2 | F2 G2 A2 B2 c4 G4 x2 | B6 A2 G8 x14 |"^-" x16- | x12 x2 x2 | z16 | z4 F4 c6 c2 | %19
w: ||||||ic laet by|
w: |||den.||||
 B4 A4 F4 G4 | A16 | z16 | z4 G4 G4 G4 | B6 A2 G4 F4 | E4 C4 D4 E4 | F8 z8 | z4 B4 B4 B4 | %27
w: hu de her- te|myn||al war ghy|syt dar sal ic|syn, tsy druck oft|pyn,|al- tyt sult|
w: ||||||||
 A4 G2 F2 E2 D2 G6 | F2 F8 E4 F2 x2 | G2 A2 B2 c4 G4 B6 x10 | A2 G8 F4 B4 x2 | B4 B4 x8 | %32
w: ghy * * * * *|die lief- ste *||* * syn, al-|tyt sult|
w: |||||
 A4 G2 F2 E2 D2 G6 | F2 F8 E4 F2 x14 |] G2 A2 B2 c4 G4 B6 | A2 G8"^-" x16 | x24 | x16 |] %38
w: ghy * * * * *|die lief- ste *|||||
w: ||||||
V:4
"^:""^Q" x8 ||[K:F][K:bass] F,8 D,4 D,4 | C,8 z8 | B,,8 G,,4 G,,4 | %4
w: |Ic seg a-|diu,|wij twee~ ~wij|
w: ||||
 F,,2 G,,2 A,,2 B,,2 C,4 G,,4 x2 | B,,6 A,,2 G,,8 | F,,8 z4 C,4 x4 | D,4 B,,4 C,8 x14 | F,,8 z8 | %9
w: m * * * * ten|schei- * *|den wy|m- ten schei-|den.|
w: |||||
 F,8 D,4 D,4 | C,8 z8 | B,,8 G,,4 G,,4 x2 | F,,2 G,,2 A,,2 B,,2 C,4 G,,4 | B,,6 A,,2 G,,8 x2 | %14
w: |||||
w: tot op ein|niew|end al om|vrucht * * * * ver-|mei- * *|
 F,,8 z4 C,4 x14 | D,4 B,,4 C,8 |"^-" x16- | x12 x2 x2 | z16 | z4 F,4 F,6 E,2 | D,4 C,4 D,4 B,,4 | %21
w: |||||ic laet by|hu de her- te|
w: den, om|vrucht ver- mei-|den.|||||
 A,,16 | z16 | z4 C,4 C,4 C,4 | D,6 F,2 E,4 D,4 | C,4 A,,4 B,,4 C,4 | F,,8 z4 C,4 | %27
w: myn||al war ghy|syt dar sal ic|syn, tsy druck oft|pyn, al-|
w: ||||||
 D,4 B,,4 B,,2 C,2 D,2 E,2 x2 | F,4 E,2 D,2 C,4 G,,4 x2 | B,,6 A,,2 G,,8 x14 | F,,8 z4 C,4 x4 | %31
w: tyt sult ghy * * *|* * * * die|lief- * ste|syn, al-|
w: ||||
 D,4 B,,4 C,8 | D,4 B,,4 B,,2 C,2 D,2 E,2 x2 | F,4 E,2 D,2 C,4 G,,4 x14 |] B,,6 A,,2 G,,8 x4 | %35
w: tyt sult ghy|die lief- ste * * *|||
w: ||||
 F,,8 z4 C,4 x10 | D,4 B,,4 C,8 x8 |"^-" x16 |] %38
w: syn, die|lief- * ste||
w: |||

